X:42
T:Én vagyok a budapesti halász
M:4/4
L:1/4
K:D
D>F A<A | d/d/A/A/ G<F |
D>F A A | dAGF |
B>^A Bc | e>d c B |
A>D F<A | dBAE | F<D D2 |

